dist/img/about/assistent.svg

<svg id="ebzT2MseSkB1" xmlns="http://www.w3.org/2000/svg" xmlns:xlink="http://www.w3.org/1999/xlink" viewBox="0 0 68 68" shape-rendering="geometricPrecision" text-rendering="geometricPrecision">
<style><![CDATA[
#ebzT2MseSkB2 {animation: ebzT2MseSkB2_c_o 1500ms linear infinite normal forwards}@keyframes ebzT2MseSkB2_c_o { 0% {opacity: 0} 100% {opacity: 1}}
]]></style>
<path id="ebzT2MseSkB2" d="M9.1,53.5564c0-1.6541-1.36843-3.0001-3.05-3.0001s-3.05,1.346-3.05,3.0001s1.36843,3,3.05,3s3.05-1.346,3.05-3Zm-4.06667,0c0-.552.45547-1,1.01667-1s1.01667.448,1.01667,1-.45547,1-1.01667,1-1.01667-.448-1.01667-1ZM3,39.0006c0,1.654,1.36843,3,3.05,3s3.05-1.346,3.05-3-1.36843-3.0001-3.05-3.0001-3.05,1.3461-3.05,3.0001Zm3.05-1c.5612,0,1.01667.448,1.01667,1s-.45547,1-1.01667,1-1.01667-.448-1.01667-1s.45547-1,1.01667-1Zm25.4167,9.0001c0,.552.4554,1,1.0166,1h2.0334c1.6815,0,3.05,1.346,3.05,3.0001s-1.3685,3-3.05,3v2.0001h-2.0334v-2.0001c-1.6815,0-3.05-1.346-3.05-3h2.0334c0,.552.4554,1,1.0166,1h2.0334c.5612,0,1.0166-.448,1.0166-1s-.4554-1-1.0166-1h-2.0334c-1.6815,0-3.05-1.3461-3.05-3.0001s1.3685-3,3.05-3v-2.0001h2.0334v2.0001c1.6815,0,3.05,1.346,3.05,3h-2.0334c0-.552-.4554-1-1.0166-1h-2.0334c-.5612,0-1.0166.448-1.0166,1ZM64,53.5564c0,1.654-1.3684,3-3.05,3s-3.05-1.346-3.05-3s1.3684-3.0001,3.05-3.0001s3.05,1.346,3.05,3.0001Zm-2.0333,0c0-.552-.4555-1-1.0167-1s-1.0167.448-1.0167,1s.4555,1,1.0167,1s1.0167-.448,1.0167-1ZM60.95,36.0005c1.6816,0,3.05,1.3461,3.05,3.0001s-1.3684,3-3.05,3-3.05-1.346-3.05-3s1.3684-3.0001,3.05-3.0001Zm0,2.0001c-.5612,0-1.0167.448-1.0167,1s.4555,1,1.0167,1s1.0167-.448,1.0167-1-.4555-1-1.0167-1ZM55.8667,54.5564v-2h-2.0334v-5.0001h-4.0666v2h2.0333v5.0001h4.0667Zm0-14.5558v-2h-4.0667v5h-2.0333v2.0001h4.0666v-5.0001h2.0334ZM11.1333,52.5564v2h4.0667v-5.0001h2.0333v-2h-4.0666v5.0001h-2.0334Zm6.1-9.5558h-2.0333v-5h-4.0667v2h2.0334v5.0001h4.0666v-2.0001Zm12.2-20.0003v-.465l-.3334-.219c-1.5077-.99-2.4736-2.57-2.6739-4.3161h-1.0593c-1.6816,0-3.05-1.346-3.05-3c0-.737.2826-1.405.733-1.928-.4758-.9541-.733-1.9991-.733-3.0721C22.3167,6.14105,25.51,3,29.4333,3h8.1334c3.9233,0,7.1166,3.14105,7.1166,7.0001c0,1.073-.2572,2.118-.732,3.0731.4504.523.732,1.19.732,1.927c0,1.654-1.3684,3-3.05,3h-1.0593c-.2003,1.7461-1.1661,3.3271-2.6739,4.3161l-.3334.219v.465h15.25c.4534,0,.8682.152,1.2068.399l.4056-.399c1.3105-1.289,3.598-1.289,4.9085,0h.5957c1.6816,0,3.05,1.346,3.05,3.0001v2c0,1.654-1.3684,3.0001-3.05,3.0001h-5.0833-3.05-9.15v3.999h1.8005l2.6586,9.1542c.4148,1.421.6242,2.895.6242,4.378c0,4.9881-2.4227,9.7552-6.4802,12.7492L38.38,63.4C36.978,64.432,35.2446,65,33.5,65s-3.476-.566-4.8749-1.596l-2.8772-2.1231c-4.0585-2.994-6.4812-7.7601-6.4812-12.7492c0-1.483.2094-2.957.6242-4.38l2.6576-9.1522h1.8015v-3.999h-9.15-3.05-5.08333c-1.68157,0-3.05-1.3461-3.05-3.0001v-2c0-1.6541,1.36843-3.0001,3.05-3.0001h.59576c1.31049-1.289,3.59797-1.289,4.90847,0l.4057.399c.3385-.247.7533-.399,1.2067-.399h15.25ZM12.15,29.0004v-3.586l-1.0167-1.0001c-.5439-.533-1.48938-.533-2.0333,0l-.59577.5861h-1.43756c-.5612,0-1.01667.448-1.01667,1v2c0,.552.45547,1,1.01667,1h5.08333Zm30.7684,7.9991h-2.7064c-1.7934,0-3.5288-.518-5.0203-1.496L33.5,34.3935l-1.6927,1.11c-1.4905.979-3.228,1.496-5.0234,1.496h-2.7013L21.847,44.7017c-.363,1.245-.547,2.533-.547,3.83c0,4.3621,2.1187,8.5302,5.6679,11.1492l2.8752,2.122c2.0984,1.5431,5.2134,1.5451,7.3179-.004l2.8711-2.118C43.5813,57.0629,45.7,52.8948,45.7,48.5317c0-1.297-.184-2.585-.5449-3.828l-2.2367-7.7042ZM55.8667,24.4143L54.85,25.4144v3.586h5.0833c.5612,0,1.0167-.448,1.0167-1v-2c0-.552-.4555-1-1.0167-1h-1.4375L57.9,24.4143c-.5439-.533-1.4894-.533-2.0333,0Zm-3.05.5861h-12.5182-2.7318L33.5,28.4144l-3.5702-3.414h-3.2282-12.5183v4h1.0167h11.1833v5.9991h.4006c1.3928,0,2.7399-.401,3.8949-1.16L33.5,31.9885l2.8202,1.851c1.156.759,2.501,1.16,3.8908,1.16h.4057v-5.9991h11.1833h1.0167v-4ZM42.65,15.0002c0-.552-.4555-1-1.0167-1h-1.0166v.618v1.382h1.0166c.5612,0,1.0167-.448,1.0167-1Zm-17.2833,1h1.0166v-2h-1.0166c-.5612,0-1.0167.448-1.0167,1s.4555,1,1.0167,1Zm3.6488-6.5841c.975-.319,2.0191-.248,2.9392.20601l1.6531.81299c.7513.37,1.5931.565,2.4339.565.8438,0,1.6876.144,2.4837.419l.9455.1787l1.1458.4023h1.0166c.1932,0,.3803.022.5633.056.2968-.644.4534-1.342.4534-2.056c0-2.75703-2.2804-5.00007-5.0833-5.00007h-8.1334c-2.8029,0-5.0833,2.24304-5.0833,5.00007c0,.714.1566,1.412.4524,2.056.184-.034.3711-.056.5643-.056h1.1651c.3355-1.194,1.2454-2.17799,2.4837-2.584Zm1.2119,11.2362l.3334.219c.5673.372.9059.994.9059,1.664v1.051L33.5,25.5864l2.0333-2.0001v-1.051c0-.67.3386-1.292.9059-1.664l.3335-.219c1.1335-.744,1.8106-1.988,1.8106-3.3281v-3.706l-.1067-.053c-.7523-.37-1.5941-.565-2.4349-.565-1.155,0-2.3109-.269-3.3438-.7761l-1.6532-.813c-.4351-.214-.9292-.248-1.3846-.098-.7442.245-1.2434.925-1.2434,1.6951v4.316c0,1.3401.6771,2.5841,1.8107,3.3281Z" opacity="0" fill="#685ed6"/></svg>

<svg width="68" height="68" viewBox="0 0 68 68" fill="none" xmlns="http://www.w3.org/2000/svg">
<path d="M9.1 53.5564C9.1 51.9023 7.73157 50.5563 6.05 50.5563C4.36843 50.5563 3 51.9023 3 53.5564C3 55.2104 4.36843 56.5564 6.05 56.5564C7.73157 56.5564 9.1 55.2104 9.1 53.5564ZM5.03333 53.5564C5.03333 53.0044 5.4888 52.5564 6.05 52.5564C6.6112 52.5564 7.06667 53.0044 7.06667 53.5564C7.06667 54.1084 6.6112 54.5564 6.05 54.5564C5.4888 54.5564 5.03333 54.1084 5.03333 53.5564ZM3 39.0006C3 40.6546 4.36843 42.0006 6.05 42.0006C7.73157 42.0006 9.1 40.6546 9.1 39.0006C9.1 37.3466 7.73157 36.0005 6.05 36.0005C4.36843 36.0005 3 37.3466 3 39.0006ZM6.05 38.0006C6.6112 38.0006 7.06667 38.4486 7.06667 39.0006C7.06667 39.5526 6.6112 40.0006 6.05 40.0006C5.4888 40.0006 5.03333 39.5526 5.03333 39.0006C5.03333 38.4486 5.4888 38.0006 6.05 38.0006ZM31.4667 47.0007C31.4667 47.5527 31.9221 48.0007 32.4833 48.0007H34.5167C36.1982 48.0007 37.5667 49.3467 37.5667 51.0008C37.5667 52.6548 36.1982 54.0008 34.5167 54.0008V56.0009H32.4833V54.0008C30.8018 54.0008 29.4333 52.6548 29.4333 51.0008H31.4667C31.4667 51.5528 31.9221 52.0008 32.4833 52.0008H34.5167C35.0779 52.0008 35.5333 51.5528 35.5333 51.0008C35.5333 50.4488 35.0779 50.0008 34.5167 50.0008H32.4833C30.8018 50.0008 29.4333 48.6547 29.4333 47.0007C29.4333 45.3467 30.8018 44.0007 32.4833 44.0007V42.0006H34.5167V44.0007C36.1982 44.0007 37.5667 45.3467 37.5667 47.0007H35.5333C35.5333 46.4487 35.0779 46.0007 34.5167 46.0007H32.4833C31.9221 46.0007 31.4667 46.4487 31.4667 47.0007ZM64 53.5564C64 55.2104 62.6316 56.5564 60.95 56.5564C59.2684 56.5564 57.9 55.2104 57.9 53.5564C57.9 51.9023 59.2684 50.5563 60.95 50.5563C62.6316 50.5563 64 51.9023 64 53.5564ZM61.9667 53.5564C61.9667 53.0044 61.5112 52.5564 60.95 52.5564C60.3888 52.5564 59.9333 53.0044 59.9333 53.5564C59.9333 54.1084 60.3888 54.5564 60.95 54.5564C61.5112 54.5564 61.9667 54.1084 61.9667 53.5564ZM60.95 36.0005C62.6316 36.0005 64 37.3466 64 39.0006C64 40.6546 62.6316 42.0006 60.95 42.0006C59.2684 42.0006 57.9 40.6546 57.9 39.0006C57.9 37.3466 59.2684 36.0005 60.95 36.0005ZM60.95 38.0006C60.3888 38.0006 59.9333 38.4486 59.9333 39.0006C59.9333 39.5526 60.3888 40.0006 60.95 40.0006C61.5112 40.0006 61.9667 39.5526 61.9667 39.0006C61.9667 38.4486 61.5112 38.0006 60.95 38.0006ZM55.8667 54.5564V52.5564H53.8333V47.5563H49.7667V49.5563H51.8V54.5564H55.8667ZM55.8667 40.0006V38.0006H51.8V43.0006H49.7667V45.0007H53.8333V40.0006H55.8667ZM11.1333 52.5564V54.5564H15.2V49.5563H17.2333V47.5563H13.1667V52.5564H11.1333ZM17.2333 43.0006H15.2V38.0006H11.1333V40.0006H13.1667V45.0007H17.2333V43.0006ZM29.4333 23.0003V22.5353L29.0999 22.3163C27.5922 21.3263 26.6263 19.7463 26.426 18.0002H25.3667C23.6851 18.0002 22.3167 16.6542 22.3167 15.0002C22.3167 14.2632 22.5993 13.5952 23.0497 13.0722C22.5739 12.1181 22.3167 11.0731 22.3167 10.0001C22.3167 6.14105 25.51 3 29.4333 3H37.5667C41.49 3 44.6833 6.14105 44.6833 10.0001C44.6833 11.0731 44.4261 12.1181 43.9513 13.0732C44.4017 13.5962 44.6833 14.2632 44.6833 15.0002C44.6833 16.6542 43.3149 18.0002 41.6333 18.0002H40.574C40.3737 19.7463 39.4079 21.3273 37.9001 22.3163L37.5667 22.5353V23.0003H52.8167C53.2701 23.0003 53.6849 23.1523 54.0235 23.3993L54.4291 23.0003C55.7396 21.7113 58.0271 21.7113 59.3376 23.0003H59.9333C61.6149 23.0003 62.9833 24.3463 62.9833 26.0004V28.0004C62.9833 29.6544 61.6149 31.0005 59.9333 31.0005H54.85H51.8H42.65V34.9995H44.4505L47.1091 44.1537C47.5239 45.5747 47.7333 47.0487 47.7333 48.5317C47.7333 53.5198 45.3106 58.2869 41.2531 61.2809L38.38 63.4C36.978 64.432 35.2446 65 33.5 65C31.7554 65 30.024 64.434 28.6251 63.404L25.7479 61.2809C21.6894 58.2869 19.2667 53.5208 19.2667 48.5317C19.2667 47.0487 19.4761 45.5747 19.8909 44.1517L22.5485 34.9995H24.35V31.0005H15.2H12.15H7.06667C5.3851 31.0005 4.01667 29.6544 4.01667 28.0004V26.0004C4.01667 24.3463 5.3851 23.0003 7.06667 23.0003H7.66243C8.97292 21.7113 11.2604 21.7113 12.5709 23.0003L12.9766 23.3993C13.3151 23.1523 13.7299 23.0003 14.1833 23.0003H29.4333ZM12.15 29.0004V25.4144L11.1333 24.4143C10.5894 23.8813 9.64392 23.8813 9.1 24.4143L8.50423 25.0004H7.06667C6.50547 25.0004 6.05 25.4484 6.05 26.0004V28.0004C6.05 28.5524 6.50547 29.0004 7.06667 29.0004H12.15ZM42.9184 36.9995H40.212C38.4186 36.9995 36.6832 36.4815 35.1917 35.5035L33.5 34.3935L31.8073 35.5035C30.3168 36.4825 28.5793 36.9995 26.7839 36.9995H24.0826L21.847 44.7017C21.484 45.9467 21.3 47.2347 21.3 48.5317C21.3 52.8938 23.4187 57.0619 26.9679 59.6809L29.8431 61.8029C31.9415 63.346 35.0565 63.348 37.161 61.7989L40.0321 59.6809C43.5813 57.0629 45.7 52.8948 45.7 48.5317C45.7 47.2347 45.516 45.9467 45.1551 44.7037L42.9184 36.9995ZM55.8667 24.4143L54.85 25.4144V29.0004H59.9333C60.4945 29.0004 60.95 28.5524 60.95 28.0004V26.0004C60.95 25.4484 60.4945 25.0004 59.9333 25.0004H58.4958L57.9 24.4143C57.3561 23.8813 56.4106 23.8813 55.8667 24.4143ZM52.8167 25.0004H40.2985H37.5667L33.5 28.4144L29.9298 25.0004H26.7016H14.1833V29.0004H15.2H26.3833V34.9995H26.7839C28.1767 34.9995 29.5238 34.5985 30.6788 33.8395L33.5 31.9885L36.3202 33.8395C37.4762 34.5985 38.8212 34.9995 40.211 34.9995H40.6167V29.0004H51.8H52.8167V25.0004ZM42.65 15.0002C42.65 14.4482 42.1945 14.0002 41.6333 14.0002H40.6167V14.6182V16.0002H41.6333C42.1945 16.0002 42.65 15.5522 42.65 15.0002ZM25.3667 16.0002H26.3833V14.0002H25.3667C24.8055 14.0002 24.35 14.4482 24.35 15.0002C24.35 15.5522 24.8055 16.0002 25.3667 16.0002ZM29.0155 9.4161C29.9905 9.0971 31.0346 9.1681 31.9547 9.62211L33.6078 10.4351C34.3591 10.8051 35.2009 11.0001 36.0417 11.0001C36.8855 11.0001 37.7293 11.1441 38.5254 11.4191L39.4709 11.5978L40.6167 12.0001H41.6333C41.8265 12.0001 42.0136 12.0221 42.1966 12.0561C42.4934 11.4121 42.65 10.7141 42.65 10.0001C42.65 7.24307 40.3696 5.00003 37.5667 5.00003H29.4333C26.6304 5.00003 24.35 7.24307 24.35 10.0001C24.35 10.7141 24.5066 11.4121 24.8024 12.0561C24.9864 12.0221 25.1735 12.0001 25.3667 12.0001H26.5318C26.8673 10.8061 27.7772 9.82211 29.0155 9.4161ZM30.2274 20.6523L30.5608 20.8713C31.1281 21.2433 31.4667 21.8653 31.4667 22.5353V23.5863L33.5 25.5864L35.5333 23.5863V22.5353C35.5333 21.8653 35.8719 21.2433 36.4392 20.8713L36.7727 20.6523C37.9062 19.9083 38.5833 18.6643 38.5833 17.3242V13.6182L38.4766 13.5652C37.7243 13.1952 36.8825 13.0002 36.0417 13.0002C34.8867 13.0002 33.7308 12.7312 32.6979 12.2241L31.0447 11.4111C30.6096 11.1971 30.1155 11.1631 29.6601 11.3131C28.9159 11.5581 28.4167 12.2381 28.4167 13.0082V17.3242C28.4167 18.6643 29.0938 19.9083 30.2274 20.6523Z" fill="#685ED6"/>
</svg>
